apps/24/dropbox.svg

<?xml version="1.0" encoding="UTF-8" standalone="no"?>
<!-- Created with Inkscape (http://www.inkscape.org/) -->

<svg
   xmlns:dc="http://purl.org/dc/elements/1.1/"
   xmlns:cc="http://creativecommons.org/ns#"
   xmlns:rdf="http://www.w3.org/1999/02/22-rdf-syntax-ns#"
   xmlns:svg="http://www.w3.org/2000/svg"
   xmlns="http://www.w3.org/2000/svg"
   xmlns:sodipodi="http://sodipodi.sourceforge.net/DTD/sodipodi-0.dtd"
   xmlns:inkscape="http://www.inkscape.org/namespaces/inkscape"
   id="svg13094"
   height="24"
   width="24"
   version="1.1"
   inkscape:version="0.48.3.1 r9886"
   sodipodi:docname="dropbox.svg">
  <defs
     id="defs7" />
  <sodipodi:namedview
     pagecolor="#ffffff"
     bordercolor="#666666"
     borderopacity="1"
     objecttolerance="10"
     gridtolerance="10"
     guidetolerance="10"
     inkscape:pageopacity="0"
     inkscape:pageshadow="2"
     inkscape:window-width="1920"
     inkscape:window-height="1032"
     id="namedview5"
     showgrid="true"
     inkscape:zoom="29.5"
     inkscape:cx="12.618778"
     inkscape:cy="10.744323"
     inkscape:window-x="-7"
     inkscape:window-y="25"
     inkscape:window-maximized="1"
     inkscape:current-layer="svg13094">
    <inkscape:grid
       type="xygrid"
       id="grid2982"
       empspacing="5"
       visible="true"
       enabled="true"
       snapvisiblegridlinesonly="true" />
  </sodipodi:namedview>
  <metadata
     id="metadata13099">
    <rdf:RDF>
      <cc:Work
         rdf:about="">
        <dc:format>image/svg+xml</dc:format>
        <dc:type
           rdf:resource="http://purl.org/dc/dcmitype/StillImage" />
        <dc:title />
      </cc:Work>
    </rdf:RDF>
  </metadata>
  <path
     inkscape:connector-curvature="0"
     style="fill:#27303a;fill-opacity:0.753280819999999968"
     d="M 7.5,3 3,6.5859375 7.5,10.207031 12,6.5859375 7.5,3 z M 12,6.5859375 16.5,10.207031 21,6.5859375 16.5,3 12,6.5859375 z M 16.5,10.207031 12,13.792969 7.5,10.207031 3,13.792969 12,21 21,13.792969 16.5,10.207031 z"
     id="path3775" />
  <path
     style="font-size:medium;font-style:normal;font-variant:normal;font-weight:normal;font-stretch:normal;text-indent:0;text-align:start;text-decoration:none;line-height:normal;letter-spacing:normal;word-spacing:normal;text-transform:none;direction:ltr;block-progression:tb;writing-mode:lr-tb;text-anchor:start;baseline-shift:baseline;color:#000000;fill:#f1f3f5;fill-opacity:0.90288714000000003;fill-rule:nonzero;stroke:none;stroke-width:2;marker:none;visibility:visible;display:inline;overflow:visible;enable-background:accumulate;font-family:Sans;-inkscape-font-specification:Sans"
     d="M 7.5,1.59375 6.8125,2.125 l -4.5,3.59375 -1.0625,0.875 1.0625,0.84375 3.4375,2.75 -3.4375,2.75 -1.0625,0.84375 1.0625,0.875 9,7.1875 0.6875,0.5625 0.6875,-0.5625 9,-7.1875 1.0625,-0.875 -1.0625,-0.84375 -3.4375,-2.75 3.4375,-2.75 L 22.75,6.59375 21.6875,5.71875 17.1875,2.125 16.5,1.59375 15.8125,2.125 12,5.15625 8.1875,2.125 z M 7.5,3 12,6.59375 16.5,3 21,6.59375 16.5,10.21875 21,13.78125 12,21 3,13.78125 7.5,10.21875 3,6.59375 z"
     id="path2990"
     inkscape:connector-curvature="0"
     sodipodi:nodetypes="cccccccccccccccccccccccccccccccccccc" />
</svg>

<?xml version="1.0" encoding="UTF-8"?>
<svg id="a" width="24" height="24" version="1.1" xmlns="http://www.w3.org/2000/svg" xmlns:cc="http://creativecommons.org/ns#" xmlns:dc="http://purl.org/dc/elements/1.1/" xmlns:rdf="http://www.w3.org/1999/02/22-rdf-syntax-ns#">
	<metadata id="c">
		<rdf:RDF>
			<cc:Work rdf:about="">
				<dc:format>image/svg+xml</dc:format>
				<dc:type rdf:resource="http://purl.org/dc/dcmitype/StillImage"/>
				<dc:title/>
			</cc:Work>
		</rdf:RDF>
	</metadata>
	<defs>
		<style id="current-color-scheme" type="text/css">.ColorScheme-Text {color:#090d11;}.ColorScheme-Background{color:#ffffff;}</style>
	</defs>
	<path id="d" d="m7.5 3-4.5 3.5859 4.5 3.6211 4.5-3.6211zm4.5 3.5859 4.5 3.6211 4.5-3.6211-4.5-3.5859zm4.5 3.6211-4.5 3.5859-4.5-3.5859-4.5 3.5859 9 7.207 9-7.207z" style="fill:currentColor;fill-opacity:0.75;" class="ColorScheme-Text"/>
	<path id="b" d="m7.5 1.5938-0.6875 0.53125-4.5 3.5938-1.0625 0.875 1.0625 0.84375 3.4375 2.75-3.4375 2.75-1.0625 0.84375 1.0625 0.875 9 7.1875 0.6875 0.5625 0.6875-0.5625 9-7.1875 1.0625-0.875-1.0625-0.84375-3.4375-2.75 3.4375-2.75 1.0625-0.84375-1.0625-0.875-4.5-3.5938-0.6875-0.53125-0.6875 0.53125-3.8125 3.0312-3.8125-3.0312zm0 1.4062 4.5 3.5938 4.5-3.5938 4.5 3.5938-4.5 3.625 4.5 3.5625-9 7.2188-9-7.2188 4.5-3.5625-4.5-3.625z" style="fill:currentColor;fill-opacity:0.5;" class="ColorScheme-Background"/>
</svg>
